packages/ui/public/icons/profile-twitter-icon.svg

<svg width="17" height="15" viewBox="0 0 17 18" fill="none" xmlns="http://www.w3.org/2000/svg">
  <path d="M15.2402 4.17188C15.2402 4.33789 15.2402 4.4707 15.2402 4.63672C15.2402 9.25195 11.7539 14.5312 5.3457 14.5312C3.35352 14.5312 1.52734 13.9668 0 12.9707C0.265625 13.0039 0.53125 13.0371 0.830078 13.0371C2.45703 13.0371 3.95117 12.4727 5.14648 11.543C3.61914 11.5098 2.32422 10.5137 1.89258 9.11914C2.125 9.15234 2.32422 9.18555 2.55664 9.18555C2.85547 9.18555 3.1875 9.11914 3.45312 9.05273C1.85938 8.7207 0.664062 7.32617 0.664062 5.63281V5.59961C1.12891 5.86523 1.69336 5.99805 2.25781 6.03125C1.29492 5.40039 0.697266 4.33789 0.697266 3.14258C0.697266 2.47852 0.863281 1.88086 1.16211 1.38281C2.88867 3.47461 5.47852 4.86914 8.36719 5.03516C8.30078 4.76953 8.26758 4.50391 8.26758 4.23828C8.26758 2.3125 9.82812 0.751953 11.7539 0.751953C12.75 0.751953 13.6465 1.15039 14.3105 1.84766C15.0742 1.68164 15.8379 1.38281 16.502 0.984375C16.2363 1.81445 15.7051 2.47852 14.9746 2.91016C15.6719 2.84375 16.3691 2.64453 16.9668 2.37891C16.502 3.07617 15.9043 3.67383 15.2402 4.17188Z" fill="white" fill-opacity="0.923" />
</svg>

<svg width="17" height="15" viewBox="0 0 17 18" fill="none" xmlns="http://www.w3.org/2000/svg"><path d="M15.24 4.172v.465c0 4.615-3.486 9.894-9.894 9.894-1.992 0-3.819-.564-5.346-1.56.266.033.531.066.83.066a7.01 7.01 0 0 0 4.316-1.494 3.47 3.47 0 0 1-3.253-2.424c.232.033.431.067.664.067.298 0 .63-.067.896-.133a3.49 3.49 0 0 1-2.789-3.42V5.6c.465.265 1.03.398 1.594.431a3.43 3.43 0 0 1-1.56-2.888c0-.664.165-1.262.464-1.76a10.115 10.115 0 0 0 7.205 3.652 3.275 3.275 0 0 1-.1-.797A3.486 3.486 0 0 1 11.755.752c.996 0 1.893.398 2.556 1.096a7.364 7.364 0 0 0 2.192-.864 3.406 3.406 0 0 1-1.527 1.926 6.535 6.535 0 0 0 1.992-.531 7.383 7.383 0 0 1-1.727 1.793Z" fill="#fff" fill-opacity=".923"/></svg>
